!!!COM: Paul Hindemith
!!!OTL: [T617_Hin-w7p11hOm1-10]
**kern	**kern	**dynam	**kern	**dynam
*grp:A	*grp:A	*grp:A	*grp:B	*grp:B
*part2	*part2	*part2	*part1	*part1
*staff3	*staff2	*	*staff1	*
*I"Piano	*	*	*I"Violoncello	*
*I'Pno.	*	*	*I'Vc.	*
*ICklav	*ICklav	*	*ICstr	*
*Ipiano	*Ipiano	*	*Icello	*
*clefF4	*clefG2	*	*clefG2	*
*k[]	*k[]	*	*k[]	*
*C:	*C:	*	*C:	*
*M4/4	*M4/4	*	*M4/4	*
=1	=1	=1	=1	=1
!	!	!	!LO:TX:t=[quarter]=185	!
!	!	!LO:DY:ed=brack	!	!LO:DY:ed=brack
4ryy	4ryy	4ryy	(2.b]	ff
*clefG2	*	*	*	*
8ryy	8ryy	.	.	.
8ryy	8ryy	.	.	.
8ryy	8ryy	.	.	.
8ryy	8ryy	.	.	.
!	!	!	!LO:TX:a:B:t=Allmählich behruhigen	!
8ryy	8ryy	.	4b-X)	.
8ryy	8ryy	.	.	.
=2	=2	=2	=2	=2
8ryy	8ryy	.	(2d	.
8ryy	8ryy	.	.	.
!	!	!LO:HP:t= sempre %s	!	!LO:HP:t= sempre %s
8ryy	8ryy	4ryy	.	>
8ryy	8ryy	.	.	.
!	!	!	!	!
8ryy	8ryy	.	2c#X)	.
8ryy	8ryy	.	.	.
8ryy	8ryy	.	.	.
8ryy	8ryy	.	.	.
=3	=3	=3	=3	=3
8ryy	8ryy	.	4r	.
8ryy	8ryy	.	.	.
8ryy	8ryy	.	(2d	.
8ryy	8ryy	.	.	.
8ryy	8ryy	.	.	.
8ryy	8ryy	.	.	.
8ryy	8ryy	.	4en)	.
8ryy	8ryy	.	.	.
=4	=4	=4	=4	=4
8ryy	8ryy	.	(4g-X	.
8ryy	8ryy	.	.	.
8ryy	8ryy	.	4f	.
8ryy	8ryy	.	.	.
8ryy	8ryy	.	4e-X	.
8ryy	8ryy	.	.	.
8ryy	8ryy	.	4b-X)	.
8ryy	8ryy	.	.	.
=5	=5	=5	=5	=5
8ryy	8ryy	.	[1an	.
8ryy	8ryy	.	.	.
8ryy	8ryy	.	.	.
8ryy	8ryy	.	.	.
8ryy	8ryy	.	.	.
8ryy	8ryy	.	.	.
8ryy	8ryy	.	.	.
8ryy	8ryy	.	.	.
=6	=6	=6	=6	=6
8ryy	8ryy	.	4a]	.
8ryy	8ryy	.	.	.
8ryy	8ryy	.	(4e	.
8ryy	8ryy	.	.	.
8ryy	8ryy	.	4f#X	.
8ryy	8ryy	.	.	.
8ryy	8ryy	.	4g)	.
8ryy	8ryy	.	.	.
=7	=7	=7	=7	=7
8ryy	8ryy	.	(2g	.
8ryy	8ryy	.	.	.
8ryy	8ryy	.	.	.
8ryy	8ryy	.	.	.
8ryy	8ryy	.	[2f#X	.
8ryy	8ryy	.	.	.
8ryy	8ryy	.	.	.
8ryy	8ryy	.	.	.
=8	=8	=8	=8	=8
8ryy	8ryy	.	4f#])	.
8ryy	8ryy	.	.	.
*	*	*	*clefF4	*
!	!	!LO:DY:t= %s dim.	!	!LO:DY:t= %s dim.
8ryy	8ryy	4ryy	(4c#X	mf
8ryy	8ryy	.	.	.
!	!	!	!	!
8ryy	8ryy	.	4d#X	.
8ryy	8ryy	.	.	.
8ryy	8ryy	.	4e)	.
8ryy	8ryy	.	.	.
=9	=9	=9	=9	=9
8ryy	8ryy	.	(2e	.
8ryy	8ryy	.	.	.
8ryy	8ryy	.	.	.
8ryy	8ryy	.	.	.
8ryy	8ryy	.	[2d#X	.
8ryy	8ryy	.	.	.
8ryy	8ryy	.	.	.
8ryy	8ryy	.	.	.
=10	=10	=10	=10	=10
8ryy	8ryy	.	4d#])	.
8ryy	8ryy	.	.	.
8ryy	8ryy	.	(4B-X	.
8ryy	8ryy	.	.	.
8ryy	8ryy	.	4c	.
8ryy	8ryy	.	.	.
8ryy	8ryy	.	4d-X)	.
8ryy	8ryy	.	.	.
=	=	=	=	=
*-	*-	*-	*-	*-
!!!system-decoration: s1[({(s2,s3)})]
!!!RDF**dynam: > = dim.
!!!RDF**kern: i = editorial accidental, brack
